public/svgs/vision/vision-decoration-logo-1.svg

<svg width="1em" height="1em" viewBox="0 0 48 48" fill="current" xmlns="http://www.w3.org/2000/svg">
<path d="M29.1388 0C32.4428 0.900069 35.3587 2.35994 37.1104 5.44432C37.8644 6.78344 38.3522 8.21038 38.5074 9.73611C38.5185 9.84587 38.5296 9.96661 38.585 10.0434C39.0285 10.6691 40.492 11.174 41.379 10.9655C40.7803 11.8326 40.0264 12.3265 39.095 12.5241C38.7513 12.601 38.5629 12.7107 38.585 13.0729C38.585 13.1608 38.5629 13.2486 38.5407 13.3474C38.3189 14.6865 38.3189 14.6865 39.5496 15.3341C40.3146 15.7402 41.1018 16.0146 41.9999 15.6744C41.501 17.0903 39.849 17.6721 37.6426 17.233C37.4431 17.6282 37.2435 18.0233 37.0218 18.4843C38.075 19.2746 39.0618 20.1637 40.6472 20.0649C39.5829 20.965 38.4631 21.2614 37.2213 21.1297C37.0328 21.1077 36.8554 21.0748 36.6781 21.0418C35.5915 20.8333 35.5915 20.8333 35.015 21.7114C35.6802 22.2602 36.3898 22.7542 36.9885 23.3579C37.7535 24.1372 37.6537 24.4994 36.7335 25.0592C36.4674 25.2239 36.3011 25.2348 36.035 24.9824C35.7689 24.7299 35.3698 24.6092 35.015 24.4555C34.8154 24.3677 34.5937 24.3348 34.3719 24.2909C32.7643 23.9506 32.476 24.0384 31.2675 25.18C31.8884 25.652 32.5536 26.08 33.1191 26.6179C33.6069 27.0789 33.995 27.6497 34.383 28.1985C34.7711 28.7473 34.7156 29.2961 34.25 29.7901C33.9728 30.0755 33.6956 30.3718 33.363 30.7231C33.2189 29.9767 32.7754 29.5925 32.2321 29.2961C30.4138 28.3302 28.4957 27.9131 26.4779 28.5058C25.9014 28.6705 25.4024 29.0876 24.8037 29.4279C25.5577 29.834 26.2118 30.0974 26.7662 30.4926C27.4314 30.9755 28.0634 31.5134 28.6066 32.1281C29.2608 32.8635 29.2053 33.094 28.5401 33.9062C27.8083 32.7098 26.7218 32.1939 25.347 32.3366C24.3159 32.4464 23.3291 33.2806 22.8302 34.466C23.7061 34.027 24.5598 33.9501 25.4246 34.2575C26.3005 34.5758 26.8881 35.2124 27.2872 36.0796C26.8992 36.0137 26.5555 35.9369 26.2118 35.904C24.6485 35.7942 23.3846 36.5955 22.8635 38.0663C22.3424 39.5262 22.298 41.0409 22.4089 42.5557C22.5198 44.0485 22.7083 45.5413 22.2426 47.0121C22.1539 47.3085 22.043 47.5939 21.8989 48C21.2115 46.2986 20.0695 45.19 18.3621 44.5973C18.5949 45.0912 18.8278 45.5742 19.1049 46.156C18.3178 45.8376 17.6747 45.3986 17.1536 44.8278C16.6436 44.257 16.2112 43.6204 15.7012 42.9618C15.6125 43.1813 15.5238 43.3899 15.3908 43.7302C15.036 43.2252 14.7034 42.8081 14.4151 42.3471C14.0603 41.7873 13.7609 41.2056 13.4172 40.6458C13.0292 40.0201 12.752 39.3725 12.7077 38.6042C12.6301 37.5175 12.1422 36.5845 11.3883 35.7722C11.2774 35.6515 11.2331 35.3881 11.2885 35.2454C11.6544 34.2904 12.12 33.3794 12.4416 32.4134C13.5946 28.879 15.8342 26.2337 19.1382 24.5324C21.4776 23.3249 23.9057 22.2932 26.2672 21.1516C28.8062 19.9223 31.0791 18.3416 32.6423 15.9598C34.9485 12.4473 35.5693 8.70432 33.8952 4.7528C33.0526 2.76607 31.5447 1.32815 29.671 0.252459C29.4603 0.175623 29.3051 0.0878116 29.1388 0ZM19.4819 31.4365C18.5062 31.9744 17.6858 32.5452 16.7877 32.9184C15.0803 33.6209 14.6368 35.0039 14.4927 36.7491C15.1468 35.9149 15.9784 35.5966 16.8653 35.3551C17.5084 35.1795 18.0628 34.7953 18.351 34.2026C18.7612 33.3355 19.0828 32.4134 19.4819 31.4365Z" fill="current"/>
<path d="M11.7274 31.7942C9.54328 30.2246 8.35054 28.4399 7.59662 25.9483C6.68747 22.9517 6.9203 19.9442 7.60771 16.9586C8.51685 13.04 10.3573 9.64827 13.6169 7.13466C14.3376 6.57486 15.1359 6.10288 15.9341 5.65284C16.4996 5.32355 17.1316 5.09304 17.7524 4.85156C12.5304 8.57258 10.5236 13.49 11.9428 19.7795C12.6967 19.3624 13.3398 19.0112 13.9828 18.6709C13.9939 18.7038 14.0161 18.7368 14.0272 18.7807C13.6613 19.4173 13.3065 20.0649 12.9295 20.6906C12.6634 21.1406 12.6967 21.5358 13.0071 21.9529C13.2178 22.2273 13.3841 22.5236 13.5615 22.7871C14.0937 22.6115 14.5926 22.4578 15.2357 22.2492C15.1026 22.4797 15.0583 22.5566 15.0139 22.6334C14.2046 23.9506 14.1935 23.5335 15.2911 24.6531C15.6348 25.0043 16.1734 25.4608 16.1734 25.4608C14.1334 27.1622 12.5701 29.1819 11.7274 31.7942Z" fill="current"/>
</svg>

<svg xmlns="http://www.w3.org/2000/svg" width="1em" height="1em" fill="current" viewBox="0 0 48 48"><path d="M29.139 0c3.304.9 6.22 2.36 7.971 5.444.754 1.34 1.242 2.766 1.397 4.292.012.11.023.23.078.307.444.626 1.907 1.131 2.794.923-.599.867-1.353 1.36-2.284 1.558-.344.077-.532.187-.51.549 0 .088-.022.176-.044.274-.222 1.34-.222 1.34 1.009 1.987.765.406 1.552.68 2.45.34-.499 1.416-2.151 1.998-4.357 1.559-.2.395-.4.79-.621 1.251 1.053.79 2.04 1.68 3.625 1.58-1.064.901-2.184 1.197-3.426 1.066a8 8 0 0 1-.543-.088c-1.086-.209-1.086-.209-1.663.67.665.548 1.375 1.042 1.974 1.646.765.78.665 1.141-.255 1.701-.267.165-.433.176-.699-.077-.266-.252-.665-.373-1.02-.526-.2-.088-.421-.121-.643-.165-1.608-.34-1.896-.253-3.105.889.621.472 1.287.9 1.852 1.438.488.46.876 1.032 1.264 1.58.388.55.333 1.098-.133 1.592-.277.286-.554.582-.887.933-.144-.746-.588-1.13-1.13-1.427-1.82-.966-3.737-1.383-5.755-.79-.577.165-1.076.582-1.674.922.754.406 1.408.67 1.962 1.065.665.483 1.297 1.02 1.84 1.635.655.736.6.966-.066 1.778-.732-1.196-1.818-1.712-3.193-1.57-1.031.11-2.018.945-2.517 2.13.876-.439 1.73-.516 2.595-.209.875.319 1.463.955 1.862 1.823-.388-.066-.732-.143-1.075-.176-1.564-.11-2.827.691-3.349 2.162-.52 1.46-.565 2.975-.454 4.49.11 1.492.3 2.985-.166 4.456-.09.297-.2.582-.344.988-.687-1.701-1.83-2.81-3.537-3.403.233.494.466.977.743 1.559-.787-.318-1.43-.757-1.951-1.328-.51-.571-.943-1.208-1.453-1.866-.088.22-.177.428-.31.768-.355-.505-.688-.922-.976-1.383-.355-.56-.654-1.141-.998-1.701-.388-.626-.665-1.273-.71-2.042-.077-1.087-.565-2.02-1.319-2.832a.6.6 0 0 1-.1-.527c.366-.955.832-1.866 1.154-2.832 1.153-3.534 3.392-6.18 6.696-7.88 2.34-1.208 4.768-2.24 7.13-3.381 2.538-1.23 4.811-2.81 6.374-5.192 2.307-3.513 2.927-7.256 1.253-11.207-.842-1.987-2.35-3.425-4.224-4.5-.21-.077-.366-.165-.532-.253m-9.657 31.437c-.976.537-1.796 1.108-2.694 1.481-1.708.703-2.151 2.086-2.295 3.831.654-.834 1.485-1.152 2.372-1.394.643-.175 1.198-.56 1.486-1.152.41-.867.732-1.79 1.13-2.767"/><path d="M11.727 31.794c-2.184-1.57-3.376-3.354-4.13-5.846-.91-2.996-.677-6.004.01-8.99.91-3.918 2.75-7.31 6.01-9.823.72-.56 1.519-1.032 2.317-1.482.566-.33 1.198-.56 1.818-.801-5.222 3.72-7.228 8.638-5.81 14.927.755-.417 1.398-.768 2.04-1.108.012.033.034.066.045.11-.366.636-.72 1.284-1.097 1.91-.267.45-.233.845.077 1.262.21.274.377.57.555.834.532-.175 1.03-.33 1.674-.538l-.222.384c-.81 1.318-.82.9.277 2.02.344.351.882.808.882.808-2.04 1.701-3.603 3.72-4.446 6.333"/></svg>
